dist/img/svg/ic_pen.svg

<svg width="12" height="16" viewBox="0 0 12 16" fill="none" xmlns="http://www.w3.org/2000/svg">
<path d="M6.04083 15.4124C5.73857 15.4124 5.45201 15.3169 5.21224 15.1363C2.70181 13.2902 0.945503 10.6019 0.271325 7.56975C0.266726 7.54918 0.263637 7.52874 0.262027 7.50841C0.181139 7.1156 0.140137 6.71175 0.140137 6.30724C0.140104 3.05676 2.78454 0.412354 6.03498 0.412354C9.28588 0.412354 11.9308 3.05676 11.9308 6.30724C11.9308 6.73888 11.8845 7.16649 11.793 7.57908C11.7914 7.59905 11.7883 7.61893 11.7838 7.63858C11.1089 10.5994 9.39135 13.239 6.94788 15.0711L6.76577 15.2045C6.75266 15.214 6.73899 15.2229 6.72487 15.2309C6.51696 15.3496 6.28037 15.4124 6.04083 15.4124ZM1.14483 7.43281C1.78165 10.2343 3.41161 12.7169 5.73916 14.4285C5.89473 14.5457 6.10174 14.5609 6.26891 14.4747L6.42135 14.3631C8.67939 12.6701 10.2728 10.2339 10.9103 7.4998C10.912 7.47959 10.9152 7.45949 10.9198 7.43948C11.0052 7.07377 11.0484 6.69282 11.0484 6.30724C11.0484 3.54334 8.79944 1.29473 6.03498 1.29473C3.27109 1.29473 1.02248 3.54334 1.02248 6.30724C1.02248 6.66903 1.06086 7.02991 1.13668 7.37962C1.14046 7.39742 1.14322 7.4151 1.14483 7.43281Z" fill="#E2243C"/>
<path d="M6.03509 8.82952C4.64399 8.82952 3.51234 7.69798 3.51234 6.30711C3.51234 4.91591 4.64402 3.784 6.03509 3.784C7.42652 3.784 8.55853 4.91591 8.55853 6.30711C8.55856 7.69798 7.42652 8.82952 6.03509 8.82952ZM6.03509 4.66638C5.13057 4.66638 4.39469 5.40235 4.39469 6.30711C4.39469 7.2114 5.13057 7.94715 6.03509 7.94715C6.93997 7.94715 7.67618 7.2114 7.67618 6.30711C7.67618 5.40235 6.93997 4.66638 6.03509 4.66638Z" fill="#E2243C"/>
</svg>

<svg width="12" height="16" viewBox="0 0 12 16" fill="none" xmlns="http://www.w3.org/2000/svg"><path d="M6.04 15.412c-.301 0-.588-.095-.828-.276A12.863 12.863 0 01.272 7.57a.44.44 0 01-.01-.062A5.901 5.901 0 016.035.412a5.902 5.902 0 015.758 7.167.415.415 0 01-.01.06 12.886 12.886 0 01-4.835 7.432l-.182.133a1.382 1.382 0 01-.725.208zm-4.895-7.98a11.985 11.985 0 004.594 6.996.501.501 0 00.53.047l.152-.112a12 12 0 004.49-6.863.43.43 0 01.009-.06 5.019 5.019 0 00-4.885-6.145A5.018 5.018 0 001.137 7.38a.453.453 0 01.008.053z" fill="#E2243C"/><path d="M6.035 8.83a2.525 2.525 0 01-2.523-2.523 2.526 2.526 0 012.523-2.523A2.526 2.526 0 018.56 6.307 2.526 2.526 0 016.035 8.83zm0-4.164c-.904 0-1.64.736-1.64 1.641 0 .904.736 1.64 1.64 1.64.905 0 1.641-.736 1.641-1.64 0-.905-.736-1.64-1.64-1.64z" fill="#E2243C"/></svg>
